kiosk-igrinskij/images/f924519d989ad730fac3636efd05dc47.svg

<svg fill="none" height="20" viewBox="0 0 9 20" width="9" xmlns="http://www.w3.org/2000/svg"><g fill="#f1e9dd"><path d="m7.00315 18.4677h-1.76212v-5.4395h-1.5323v5.4395h-1.76212c-.42308 0-.76615.343-.76615.7661s.343.7662.76615.7662h5.05646c.42308 0 .76615-.343.76615-.7662 0-.4231-.343-.7661-.76607-.7661z"/><path d="m7.34364 13.6531c.37106 0 .71421-.1889.94175-.5181.29436-.426.35985-1.0308.16711-1.5407l-.64527-1.70555c-.06909-.18263-.07546-.42637-.01619-.62094l1.12548-3.69772c.02198-.07231.03319-.14755.03319-.22308v-2.61764c0-.34791-.2345-.65216-.57091-.74081l-1.91267-.50395v-.718386c0-.423222-.34307-.766224-.76615-.766224h-2.45025c-.42307 0-.76615.343002-.76615.766151v.718389l-1.912666.50395c-.336483.08865-.570914.39297-.570914.7408v2.61765c0 .0756.011209.15077.0331869.22308l1.1254931 3.69771c.05926.19458.05289.43832-.01634.62095l-.645125 1.70552c-.19282.5099-.127253 1.1147.167105 1.5408.227545.3292.57069.518.94176.518h5.73756z"/></g></svg>

<svg width="9" height="20" viewBox="0 0 9 20" fill="none" xmlns="http://www.w3.org/2000/svg">
<path d="M7.00315 18.4677H5.24103V13.0282H3.70873V18.4677H1.94661C1.52353 18.4677 1.18046 18.8107 1.18046 19.2338C1.18046 19.6569 1.52346 20 1.94661 20H7.00307C7.42615 20 7.76922 19.657 7.76922 19.2338C7.76922 18.8107 7.42622 18.4677 7.00315 18.4677Z" fill="#F1E9DD"/>
<path d="M7.34364 13.6531C7.7147 13.6531 8.05785 13.4642 8.28539 13.135C8.57975 12.709 8.64524 12.1042 8.4525 11.5943L7.80723 9.88875C7.73814 9.70612 7.73177 9.46238 7.79104 9.26781L8.91652 5.57009C8.9385 5.49778 8.94971 5.42254 8.94971 5.34701V2.72937C8.94971 2.38146 8.71521 2.07721 8.3788 1.98856L6.46613 1.48461V0.766224C6.46613 0.343002 6.12306 0 5.69998 0H3.24973C2.82666 0 2.48358 0.343002 2.48358 0.766151V1.48454L0.570914 1.98849C0.234431 2.07714 0 2.38146 0 2.72929V5.34694C0 5.42254 0.011209 5.49771 0.0331869 5.57002L1.15868 9.26773C1.21794 9.46231 1.21157 9.70605 1.14234 9.88868L0.497215 11.5942C0.304395 12.1041 0.369962 12.7089 0.66432 13.135C0.891865 13.4642 1.23501 13.653 1.60608 13.653H7.34364V13.6531Z" fill="#F1E9DD"/>
</svg>
